actions/24/mail-tagged.svg

<svg xmlns="http://www.w3.org/2000/svg" viewBox="0 0 24 24" width="24" height="24">
  <defs id="defs3051">
    <style type="text/css" id="current-color-scheme">.ColorScheme-Text {color:#fcfcfc;}</style>
  </defs>
  <g transform="translate(1,1)">
    <path style="fill:currentColor;fill-opacity:1;stroke:none" d="m 1,5 v 7 5 c 0,0 0,2 2,2 2,0 5,0 5,0 h 3 V 18 H 8 2 v -0.585938 l 0.4628906,-0.46289 6.2675782,-6.267578 1.4531252,1.451172 0.814453,0.814453 H 11 L 11.816406,12.134766 13.269531,10.683594 14.585938,12 H 16 L 13.976562,9.9765625 19.728516,4.2226562 19.951172,4 H 20 V 4.2226562 10 h 1 V 5 C 21,5 21,3 19,3 17,3 5,3 3,3 1,3 1,5 1,5 Z M 2,4 h 0.048828 L 2.2714844,4.2226562 8.0234375,9.9765625 2,16 V 12 4.2226562 Z M 3.4628906,4 H 18.537109 L 11,11.537109 Z M 15,13 v 2 l 4,4 2,-2 -4,-4 z m 1.5,1 C 16.777,14 17,14.223 17,14.5 17,14.777 16.777,15 16.5,15 16.223,15 16,14.777 16,14.5 16,14.223 16.223,14 16.5,14 Z" class="ColorScheme-Text"/>
  </g>
</svg>

<svg xmlns="http://www.w3.org/2000/svg" viewBox="0 0 24 24" width="24" height="24">
  <defs id="defs3051">
    <style type="text/css" id="current-color-scheme">
      .ColorScheme-Text {
        color:#eff0f1;
      }
      </style>
  </defs>
  <g transform="translate(1,1)">
    <path style="fill:currentColor;fill-opacity:1;stroke:none" d="M 1 3 L 1 4 L 1 12 L 1 18 L 1 18.414062 L 1 19 L 2 19 L 8 19 L 11 19 L 11 18 L 8 18 L 2 18 L 2 17.414062 L 2.4628906 16.951172 L 8.7304688 10.683594 L 10.183594 12.134766 L 10.998047 12.949219 L 11 12.949219 L 11.816406 12.134766 L 13.269531 10.683594 L 14.585938 12 L 16 12 L 13.976562 9.9765625 L 19.728516 4.2226562 L 19.951172 4 L 20 4 L 20 4.2226562 L 20 10 L 21 10 L 21 3 L 20.951172 3 L 20 3 L 19.537109 3 L 2.4628906 3 L 2 3 L 1 3 z M 2 4 L 2.0488281 4 L 2.2714844 4.2226562 L 8.0234375 9.9765625 L 2 16 L 2 12 L 2 4.2226562 L 2 4 z M 3.4628906 4 L 18.537109 4 L 11 11.537109 L 3.4628906 4 z M 15 13 L 15 15 L 19 19 L 21 17 L 17 13 L 15 13 z M 16.5 14 C 16.777 14 17 14.223 17 14.5 C 17 14.777 16.777 15 16.5 15 C 16.223 15 16 14.777 16 14.5 C 16 14.223 16.223 14 16.5 14 z " class="ColorScheme-Text"/>
  </g>
</svg>
